X: 5
I: linebreak $
T: John Tallow's Canon
T: Chanconeta Tedescha
P: 
C: Anonymous, London Manuscript (Add. 29987), 14th Century
N: Drone D/A
K: A minor
M: 4/4
L: 1/8
P: A
 |: D2 | D2FE D2A2 | B2AB AGF2 | E2FE D2D2 | E2FG FEFG | A2AG F2E2 | D2d2 cBAG | 
F2E2 FGFE | D6 :: 
P: B
D2 | D2AB dcB2 | AGF2 cdB2 | B2A2 A2BA | G2F2 E4 | 
D2dB e2de | f2cd edc2 | B2AG F2GF | E6 :| 

